public/icons/pre-authorized-payment-sm.svg

<svg role="img" width="24" height="24" viewBox="0 0 24 24" fill="none" xmlns="http://www.w3.org/2000/svg">
<path d="M20.642 11.9729C20.642 7.21335 16.7861 3.35742 12.0266 3.35742C7.26706 3.35742 3.41113 7.21335 3.41113 11.9729C3.41113 16.7324 7.26706 20.5883 12.0266 20.5883C15.1191 20.5883 17.976 18.9302 19.5088 16.2433M20.642 11.9729L19 10.5M20.642 11.9729L22.5 10.5" stroke="currentColor" stroke-linecap="round" stroke-linejoin="round"/>
<path d="M8 10H16V15H8V10Z" stroke="currentColor" stroke-linecap="round" stroke-linejoin="round"/>
<path d="M8 11H16V15H8V11Z" stroke="currentColor" stroke-linecap="round" stroke-linejoin="round"/>
<line x1="9.38867" y1="13.5" x2="11.0553" y2="13.5" stroke="currentColor" stroke-linecap="round" stroke-linejoin="round"/>
</svg>

<svg role="img" xmlns="http://www.w3.org/2000/svg" width="24" height="24" fill="none" viewBox="0 0 24 24">
  <path stroke="currentColor" stroke-linecap="round" stroke-linejoin="round" d="M20.642 11.9729c0-4.7595-3.8559-8.6155-8.6154-8.6155-4.7595 0-8.6155 3.856-8.6155 8.6155 0 4.7595 3.856 8.6154 8.6155 8.6154 3.0925 0 5.9494-1.6581 7.4822-4.345m1.1332-4.2704L19 10.5m1.642 1.4729L22.5 10.5"/>
  <path stroke="currentColor" stroke-linecap="round" stroke-linejoin="round" d="M8 10h8v5H8v-5Z"/>
  <path stroke="currentColor" stroke-linecap="round" stroke-linejoin="round" d="M8 11h8v4H8v-4Zm1.3889 2.5h1.6667"/>
</svg>
